X:394
T:Banister Hornpipe
O:england
M:4/4
A:North-West
R:Hornpipe
K:Bb
dc|\
BABF DEFD| EFGE C2ed| cBcd egfB| A2f2 f2dc|\
BABF DEFD| EFGE C2ed| cBcd egfA| B2b2 b2::\
dc|\
Bg g2 Bgeg| egg2 egec| Aff2 Afcf| dff2 dfdB|\
GBB2 edcB| Acf2 fedc| Bdfd egfA| B2b2 b2:|


